black/svg/1F93F.svg

<svg id="emoji" viewBox="0 0 72 72" xmlns="http://www.w3.org/2000/svg">
  <g id="line">
    <path fill="none" stroke="#000" stroke-linecap="round" stroke-linejoin="round" stroke-width="2" d="m32.823,42.7361c.9093-.0071,1.7956.285,2.5225.8313,2.423,1.8508,7.6443,1.8431,10.6744,1.5713,5.5412-.4972,10.517-1.1755,10.941-8.15l-.4014-7.026,1.5272.04v-3.3261s-8.39-7.1786-24.0823-1.8519h-4.79c-14.7722-5.05-24.2808,1.8519-24.2808,1.8519v3.3261l1.5271-.04-.4014,7.026c.424,6.9749,5.4,7.6532,10.941,8.15,3.03.2718,8.2514.2795,10.6744-1.5713.7269-.5463,1.6132-.8384,2.5225-.8313h2.6258Z"/>
    <path fill="none" stroke="#000" stroke-linecap="round" stroke-linejoin="round" stroke-width="2" d="m33.9546,27.8015c2.0036-.993,4.2085-1.5125,6.4447-1.5183h8.9545c2.2064.0065,3.9935,1.7936,4,4v7.5668c-.0065,2.2064-1.7936,3.9935-4,4h-7.7713c-2.4532-.1391-4.7119-1.3802-6.1448-3.3763l-1.7829-2.8064c-1.18-1.8569-3.1338-1.8723-4.3424-.034l-1.89,2.8745c-1.468,1.978-3.7383,3.2024-6.1976,3.3422h-7.5587c-2.2064-.0065-3.9935-1.7936-4-4v-7.5668c.0065-2.2064,1.7936-3.9935,4-4h8.6975c2.2762.0155,4.5208.534,6.5732,1.5183,1.5683.8352,3.4495.8352,5.0178,0Z"/>
    <path fill="none" stroke="#000" stroke-linecap="round" stroke-linejoin="round" stroke-width="2" d="m63.0361,5c1.1046,0,2,.8954,2,2h0v38.0742c.0111,1.2622-.1549,2.5197-.4931,3.7358-.9636,3.683-3.3177,6.8489-6.5674,8.832-2.1253,1.2153-4.5376,1.8384-6.9856,1.8043-.3056,0-.6135-.0088-.9238-.0264-4.7773-.2685-8.1924-1.5967-10.1523-3.9482-.6559-.7785-1.1379-1.6881-1.4139-2.668l-1.5225-.0166c-1.0998-.0127-1.9831-.9108-1.9775-2.0107"/>
  </g>
</svg>

<svg id="emoji" viewBox="0 0 72 72" xmlns="http://www.w3.org/2000/svg">
  <g id="line">
    <path fill="none" stroke="#000" stroke-linecap="round" stroke-linejoin="round" stroke-width="2" d="M32.823,42.7361a4.1445,4.1445,0,0,1,2.5225.8313c2.423,1.8508,7.6443,1.8431,10.6744,1.5713,5.5412-.4972,10.517-1.1755,10.941-8.15l-.4014-7.026,1.5272.04V26.6766s-8.39-7.1786-24.0823-1.8519h-4.79c-14.7722-5.05-24.2808,1.8519-24.2808,1.8519v3.3261l1.5271-.04-.4014,7.026c.424,6.9749,5.4,7.6532,10.941,8.15,3.03.2718,8.2514.2795,10.6744-1.5713a4.1445,4.1445,0,0,1,2.5225-.8313Z"/>
    <path fill="none" stroke="#000" stroke-linecap="round" stroke-linejoin="round" stroke-width="2" d="M33.9546,27.8015a14.5976,14.5976,0,0,1,6.4447-1.5183h8.9545a4.0118,4.0118,0,0,1,4,4V37.85a4.0118,4.0118,0,0,1-4,4H41.5825a8.1306,8.1306,0,0,1-6.1448-3.3763l-1.7829-2.8064c-1.18-1.8569-3.1338-1.8723-4.3424-.034l-1.89,2.8745A8.305,8.305,0,0,1,21.2248,41.85H13.6661a4.0118,4.0118,0,0,1-4-4V30.2832a4.0118,4.0118,0,0,1,4-4h8.6975a15.4435,15.4435,0,0,1,6.5732,1.5183A5.3377,5.3377,0,0,0,33.9546,27.8015Z"/>
    <path fill="none" stroke="#000" stroke-linecap="round" stroke-linejoin="round" stroke-width="2" d="M63.0361,5a2,2,0,0,1,2,2V45.0742A13.4992,13.4992,0,0,1,64.543,48.81a14.708,14.708,0,0,1-6.5674,8.832A13.6886,13.6886,0,0,1,50.99,59.4463q-.4584,0-.9238-.0264c-4.7773-.2685-8.1924-1.5967-10.1523-3.9482A7.1491,7.1491,0,0,1,38.5,52.8037l-1.5225-.0166A2.0007,2.0007,0,0,1,35,50.7764"/>
  </g>
</svg>
